svgs/thin/cookie-bite.svg

<svg xmlns="http://www.w3.org/2000/svg" viewBox="0 0 512 512"><!--! Font Awesome Pro 6.3.0 by @fontawesome - https://fontawesome.com License - https://fontawesome.com/license (Commercial License) Copyright 2023 Fonticons, Inc. --><path d="M487.8 255.6c-59.98-4.093-107.9-52.11-111.6-112.1c-.2591-4.202-3.51-7.453-7.713-7.712c-60.01-3.7-108-51.6-112-111.6c-.2692-4.042-3.323-7.276-7.356-7.653C245.3 16.18 241.4 16 237.5 16c-19.43 0-38.63 4.525-56 13.48L116.7 62.41c-23.32 11.95-42.31 30.94-54.26 54.26L29.6 181.2c-11.96 23.44-16.17 49.92-12.07 75.94l11.37 71.48c4.102 25.9 16.29 49.8 34.81 68.32l51.36 51.39c18.46 18.46 42.39 30.66 68.18 34.75l71.84 11.37C261.5 495.5 268 496 274.5 496c19.46 0 38.65-4.591 56.17-13.48l64.81-33.05c23.32-11.84 42.31-30.82 54.14-54.14l32.93-64.57c10.69-21.06 15.14-44.76 12.9-68.15C495.1 258.7 491.7 255.9 487.8 255.6zM468.3 323.5l-32.94 64.6c-10.23 20.15-26.96 36.88-47.14 47.13l-64.78 33.03c-15.14 7.685-32.07 11.75-48.96 11.75c-5.629 0-11.31-.4472-16.89-1.33L185.7 467.3c-22.6-3.58-43.14-14.06-59.39-30.32l-51.33-51.33c-16.24-16.24-26.72-36.82-30.32-59.52L33.33 254.7C29.74 231.9 33.38 209 43.86 188.5l32.79-64.52C87.14 103.5 103.5 87.14 123.9 76.67l64.89-32.97c14.86-7.656 31.69-11.7 48.66-11.7c1.232 0 2.471 .0195 3.709 .0625c7.371 62.36 57.39 112.1 119.7 119.1c7.02 62.24 56.73 112.3 119.1 119.8C480.5 289.1 476.5 307.3 468.3 323.5zM176 303.1c-17.62 0-32 14.37-32 31.1s14.38 31.1 32 31.1s32-14.37 32-31.1S193.6 303.1 176 303.1zM176 351.1c-8.822 0-16-7.178-16-15.1c0-8.822 7.178-15.1 16-15.1s15.1 7.177 15.1 15.1C192 344.8 184.8 351.1 176 351.1zM208 144c-17.62 0-32 14.37-32 31.1s14.38 31.1 32 31.1s32-14.37 32-31.1S225.6 144 208 144zM208 192c-8.822 0-16-7.178-16-15.1c0-8.822 7.178-15.1 16-15.1s16 7.177 16 15.1C224 184.8 216.8 192 208 192zM368 271.1c-17.62 0-32 14.37-32 31.1c0 17.62 14.38 31.1 32 31.1s32-14.37 32-31.1C400 286.4 385.6 271.1 368 271.1zM368 319.1c-8.822 0-16-7.178-16-15.1c0-8.822 7.178-15.1 16-15.1s16 7.177 16 15.1C384 312.8 376.8 319.1 368 319.1z"/></svg>

<svg xmlns="http://www.w3.org/2000/svg" viewBox="0 0 512 512"><!-- Font Awesome Pro 6.0.0-alpha2 by @fontawesome - https://fontawesome.com License - https://fontawesome.com/license (Commercial License) --><path d="M487.823 255.61C427.841 251.517 379.939 203.496 376.24 143.484C375.981 139.282 372.73 136.031 368.527 135.772C308.514 132.072 260.498 84.174 256.504 24.198C256.235 20.156 253.181 16.922 249.147 16.545C245.251 16.181 241.352 16 237.463 16C218.035 16 198.851 20.525 181.475 29.48L116.668 62.409C93.348 74.361 74.363 93.345 62.41 116.667L29.598 181.235C17.642 204.672 13.424 231.157 17.525 257.172L28.894 328.656C32.996 354.553 45.183 378.459 63.699 396.974L115.145 448.42C133.608 466.883 157.443 479.025 183.232 483.106L255.07 494.473C261.521 495.494 268.002 496 274.457 496C293.916 496 313.144 491.408 330.658 482.52L395.463 449.474C418.783 437.639 437.769 418.655 449.605 395.333L482.535 330.765C493.227 309.701 497.676 286.005 495.436 262.613C495.063 258.719 491.726 255.876 487.823 255.61ZM468.281 323.496L435.338 388.093C425.109 408.245 408.377 424.977 388.193 435.221L323.418 468.253C308.273 475.938 291.344 480.001 274.457 480.001C268.828 480.001 263.146 479.553 257.57 478.67L185.734 467.304C163.135 463.724 142.596 453.242 126.342 436.988L75.014 385.66C58.775 369.422 48.291 348.845 44.695 326.142L33.33 254.68C29.74 231.917 33.379 209.033 43.861 188.483L76.648 123.963C87.139 103.499 103.5 87.136 123.916 76.672L188.803 43.702C203.662 36.046 220.488 31.999 237.463 31.999C238.695 31.999 239.933 32.019 241.172 32.062C248.543 94.417 298.562 144.138 360.859 151.154C367.879 213.396 417.59 263.453 479.93 270.927C480.49 289.054 476.482 307.34 468.281 323.496ZM176.008 303.998C158.383 303.998 144.008 318.373 144.008 335.997C144.008 353.622 158.383 367.996 176.008 367.996S208.008 353.622 208.008 335.997C208.008 318.373 193.633 303.998 176.008 303.998ZM176.008 351.997C167.185 351.997 160.008 344.819 160.008 335.997C160.008 327.175 167.185 319.998 176.008 319.998S192.008 327.175 192.008 335.997C192.008 344.819 184.83 351.997 176.008 351.997ZM208.008 144.004C190.383 144.004 176.008 158.378 176.008 176.003S190.383 208.002 208.008 208.002S240.008 193.627 240.008 176.003S225.633 144.004 208.008 144.004ZM208.008 192.002C199.185 192.002 192.008 184.825 192.008 176.003C192.008 167.181 199.185 160.003 208.008 160.003S224.008 167.181 224.008 176.003C224.008 184.825 216.83 192.002 208.008 192.002ZM368.008 271.999C350.383 271.999 336.008 286.374 336.008 303.998S350.383 335.997 368.008 335.997S400.008 321.623 400.008 303.998S385.633 271.999 368.008 271.999ZM368.008 319.998C359.185 319.998 352.008 312.82 352.008 303.998C352.008 295.176 359.185 287.999 368.008 287.999S384.008 295.176 384.008 303.998C384.008 312.82 376.83 319.998 368.008 319.998Z"/></svg>
